williams/_inc/system.svg

<svg xmlns="http://www.w3.org/2000/svg"><g fill="#fff"><path d="m102.054 130.142c-4.005-3.193-7.044-16.922-6.029-27.609 1.671-17.529 9.371-35.563 25.786-60.386 7.244-11.045 6.989-10.589 6.281-10.133-.356.203-4.865 5.521-10.083 11.853-23.454 28.372-29.231 34.856-41.388 46.153-23.859 22.289-43.416 37.232-51.723 39.514-1.62.405-2.231.405-3.142-.203-.657-.456-1.164-1.115-1.164-1.52 0-.455 1.571-2.33 3.446-4.205 12.461-12.309 28.876-36.171 40.425-58.611 13.425-26.141 17.63-44.327 12.413-53.702-3.194-5.724-10.641-7.952-20.772-6.28-17.022 2.734-36.475 18.793-46.557 38.398-4.658 9.071-5.877 13.173-5.877 20.569-.049 5.421.103 6.332 1.115 8.359 2.434 4.661 5.421 6.585 10.082 6.585 4.965-.049 10.79-3.495 16.971-10.08 6.788-7.143 10.994-14.339 14.591-24.621 3.039-8.815 4.203-15.199 3.899-20.821-.252-4.409.051-5.776 1.267-5.776 1.115 0 3.193 9.07 3.953 17.326 1.012 10.589-.659 20.112-4.813 27.508-4.661 8.411-16.059 17.375-25.533 20.213-4.002 1.167-10.487 1.064-13.932-.252-3.443-1.267-7.548-4.913-9.168-8.107-9.018-17.73 12.258-54.409 39.514-68.186 9.778-4.965 18.086-6.688 27.205-5.676 23.199 2.586 33.385 19.301 26.442 43.367-5.418 18.945-23.252 42.908-48.582 65.299-4.053 3.546-7.244 6.585-7.092 6.688.508.556 12.565-8.311 21.277-15.555 11.197-9.422 27.052-25.278 38.198-38.246 9.626-11.246 27.508-34.349 41.288-53.346 3.242-4.509 6.381-8.359 6.94-8.511 1.164-.404 1.976.052 1.976 1.015 0 .404-3.75 11.042-8.308 23.658-17.226 47.57-27.053 76.293-27.508 80.651-.256 2.479-.052 2.175 5.165-7.296 15.807-28.675 27.104-45.087 40.022-58.007 9.474-9.471 19.049-16.159 18.997-13.272 0 1.015-.508 1.419-5.825 5.369-18.441 13.628-37.591 41.036-55.98 80.094-2.583 5.421-5.421 11.498-6.333 13.425-2.33 4.913-4.861 6.384-7.444 4.357z"/><path d="m372.422 129.887c-2.027-.86-4.813-3.646-5.624-5.725-.405-.96-.708-3.494-.708-6.229 0-2.483-.101-4.561-.253-4.561-.151 0-2.585 2.331-5.42 5.22-8.208 8.156-14.033 11.498-20.213 11.498-9.727 0-16.567-9.778-14.743-21.224.355-2.13.759-4.613.911-5.524.508-2.735-.76-1.62-7.344 6.435-15.251 18.742-24.47 23.808-32.373 17.934-3.495-2.586-4.61-7.144-3.394-13.932.963-5.624 2.534-9.878 7.143-19.757 5.673-12.109 5.369-12.008-4.813 1.568-15.096 20.064-22.847 28.068-31.206 32.373-3.242 1.62-8.967 2.127-11.194.964-8.967-4.613-8.411-17.278 1.619-37.539 5.065-10.234 4.813-10.082-5.421 3.09-21.124 27.305-28.368 34.345-36.475 35.409-4.658.659-8.915-1.823-10.942-6.281-1.164-2.534-1.264-3.19-1.064-8.156.304-6.636 2.279-12.968 7.548-23.81 1.927-4.002 3.394-7.396 3.294-7.496-.1-.103-3.494 4.202-7.548 9.623-19.504 26.041-28.672 35.008-36.879 36.12-4.206.559-8.715-1.671-10.538-5.266-1.419-2.89-1.671-5.98-.811-10.842.963-5.624 2.534-9.878 7.195-19.86 2.075-4.406 3.646-8.104 3.546-8.207-.355-.353-4.053 4.053-9.374 11.045-4.661 6.232-5.773 7.296-6.737 6.688-1.267-.76.304-3.294 9.019-14.491 14.488-18.542 15.248-19.402 18.49-20.213 1.619-.404 5.673-.656 10.03-.708h7.345l-.152 1.267c-.049.657-4.154 8.208-9.068 16.716-10.537 18.085-16.514 29.79-17.73 34.551-.811 3.139-.811 3.495-.103 4.255.763.711 1.015.711 2.99-.304 6.232-3.191 22.391-21.784 43.619-50.152 13.425-18.034 15.348-20.821 24.771-36.983 15.503-26.494 17.074-29.128 18.037-29.988.556-.459 1.872-1.067 2.987-1.37 2.938-.809 13.476-1.265 14.439-.608.96.711-.507 3.546-13.932 27.153-34.145 59.982-47.973 86.73-47.265 91.492.203 1.723 2.431 1.875 5.117.304 2.634-1.571 9.119-8.208 14.132-14.54 23.455-29.635 41.541-53.394 44.583-58.563.96-1.671 6.836-11.65 13.017-22.239 6.232-10.587 11.857-19.958 12.513-20.821 1.419-1.923 4.002-2.683 10.842-3.09 5.572-.353 7.599 0 7.599 1.215 0 .912-2.027 4.662-16.87 30.751-29.028 51.167-41.541 75.029-44.175 84.148-1.316 4.506-.356 5.317 3.649 3.19 5.673-3.09 12.513-10.537 32.319-35.36 8.158-10.182 15.25-18.845 15.755-19.353 1.978-1.671 10.538-2.734 16.922-2.026 3.139.355 3.29.407 3.139 1.622-.049.657-4.154 8.208-9.068 16.716-16.818 28.979-21.276 39.717-16.363 39.109 3.142-.352 10.386-7.295 23.759-22.795 18.39-21.428 25.433-28.268 32.93-32.221 5.217-2.735 9.422-3.951 13.728-4.002 5.825-.101 8.563 1.063 13.072 5.472l3.747 3.647.811-1.416c.507-.763 1.267-2.131 1.723-2.99 1.315-2.383 3.546-3.039 10.13-3.039 7.5 0 9.526.352 9.526 1.62 0 1.267-.863 2.938-10.234 19.352-14.743 25.886-19.2 36.069-16.159 37.032 3.899 1.215 15.956-11.197 33.078-34.093 8.615-11.55 11.602-15.047 16.059-18.998 7.548-6.688 16.466-7.396 19.505-1.571 2.279 4.306.963 14.589-3.19 25.33l-1.52 3.902 1.772-1.723c1.015-.963 4.813-5.725 8.459-10.59 13.729-18.237 21.532-23.91 28.928-21.072 2.786 1.063 5.117 3.646 5.928 6.484.912 3.494.252 11.398-1.522 18.338-.912 3.342-1.52 6.232-1.468 6.433.1.203 2.331-2.431 5.017-5.774 13.98-17.63 22.491-24.925 29.735-25.533 3.395-.252 5.625.863 8.156 4.105 5.928 7.496 2.938 20.769-8.815 39.058-6.129 9.523-7.903 13.525-6.837 15.452 2.227 4.202 13.881-6.284 28.116-25.33 3.039-4.054 11.043-14.388 17.731-23.051 6.736-8.611 13.88-17.882 15.855-20.568s3.95-5.017 4.409-5.218c1.671-.607 2.279-.303 2.279 1.164 0 1.064-.76 2.434-2.635 4.661-2.382 2.839-2.634 3.395-2.582 5.522.048 2.482 1.871 7.396 6.684 18.085 3.75 8.208 5.169 13.476 5.473 20.164.152 3.091 0 6.585-.255 7.801l-.505 2.178 1.52-1.419c.811-.808 3.038-3.291 4.861-5.521 3.698-4.406 4.157-4.862 4.917-4.661 1.416.456.504 2.382-3.649 7.852-13.221 17.377-23.659 24.014-35.157 22.391-5.573-.808-8.815-2.331-12.513-5.773-2.938-2.738-4.257-5.421-4.561-9.271-.456-6.08 1.978-9.778 6.636-10.182 3.294-.256 5.525.708 6.941 3.09 1.218 1.975 1.318 5.876.255 7.903-.812 1.62-3.546 4.102-4.458 4.102-1.622.052-1.978.86-1.167 2.431 1.064 2.027 2.535 2.787 4.61 2.431 5.32-1.012 13.984-16.971 17.022-31.203 1.975-9.475 1.471-25.433-.86-26.193-.507-.152-18.441 22.443-28.827 36.323-10.991 14.741-18.134 22.088-24.315 25.127-3.394 1.671-4.053 1.823-7.043 1.622-7.8-.507-11.802-7.043-10.486-17.174 1.063-8.459 4.357-16.111 11.956-28.016 7.244-11.346 8.156-14.336 4.306-14.132-6.232.303-21.276 18.389-41.744 50.152-3.95 6.129-5.318 7.803-6.585 8.259-.86.352-5.369.708-10.03.86l-8.511.303v-1.163c0-1.116 3.394-7.904 13.12-26.242 9.171-17.326 13.121-27.56 11.501-29.738-2.889-3.951-16.466 11.197-37.742 42.048-10.486 15.247-9.271 13.932-13.476 14.436-4.054.559-13.121.659-14.792.204-.659-.204-1.167-.608-1.167-.912 0-.356 3.902-7.448 8.715-15.807 13.628-23.81 20.516-37.891 19.401-39.717-1.72-2.787-8.408 3.953-22.795 22.798-9.575 12.513-14.032 17.882-19.605 23.355-8.916 8.864-16.871 12.613-21.936 10.383zm-25.785-4.102c6.28-3.142 13.272-10.486 20.72-21.784 5.013-7.648 8.256-13.273 10.638-18.49 1.267-2.738 1.519-3.953 1.519-7.295v-3.951l-1.975-1.723c-5.877-5.117-12.261.201-25.937 21.581-9.931 15.502-14.288 25.229-13.173 29.635.863 3.394 3.954 4.154 8.208 2.027z"/><path d="m189.085 45.49c-3.394-1.064-5.369-4.206-5.369-8.46 0-3.497 1.216-6.332 3.595-8.614 7.651-7.244 17.833-1.264 14.895 8.715-1.723 5.977-8.004 9.978-13.121 8.359z"/><path d="m325.257 44.527c-3.85-1.772-5.421-6.081-4.05-10.942 2.023-6.941 9.319-10.79 14.688-7.7 2.635 1.519 3.853 3.901 3.853 7.648 0 3.75-1.37 6.74-4.105 9.07-3.343 2.887-6.84 3.546-10.386 1.924z"/></g></svg>

<?xml version="1.0" encoding="utf-8"?>
<svg version="1.0" xmlns="http://www.w3.org/2000/svg">
  <g>
    <path d="M 102.054 130.142 C 98.049 126.949 95.01 113.22 96.025 102.533 C 97.696 85.004 105.396 66.97 121.811 42.147 C 129.055 31.102 128.8 31.558 128.092 32.014 C 127.736 32.217 123.227 37.535 118.009 43.867 C 94.555 72.239 88.778 78.723 76.621 90.02 C 52.762 112.309 33.205 127.252 24.898 129.534 C 23.278 129.939 22.667 129.939 21.756 129.331 C 21.099 128.875 20.592 128.216 20.592 127.811 C 20.592 127.356 22.163 125.481 24.038 123.606 C 36.499 111.297 52.914 87.435 64.463 64.995 C 77.888 38.854 82.093 20.668 76.876 11.293 C 73.682 5.569 66.235 3.341 56.104 5.013 C 39.082 7.747 19.629 23.806 9.547 43.411 C 4.889 52.482 3.67 56.584 3.67 63.98 C 3.621 69.401 3.773 70.312 4.785 72.339 C 7.219 77 10.206 78.924 14.867 78.924 C 19.832 78.875 25.657 75.429 31.838 68.844 C 38.626 61.701 42.832 54.505 46.429 44.223 C 49.468 35.408 50.632 29.024 50.328 23.402 C 50.076 18.993 50.379 17.626 51.595 17.626 C 52.71 17.626 54.788 26.696 55.548 34.952 C 56.56 45.541 54.889 55.064 50.735 62.46 C 46.074 70.871 34.676 79.835 25.202 82.673 C 21.2 83.84 14.715 83.737 11.27 82.421 C 7.827 81.154 3.722 77.508 2.102 74.314 C -6.916 56.584 14.36 19.905 41.616 6.128 C 51.394 1.163 59.702 -0.56 68.821 0.452 C 92.02 3.038 102.206 19.753 95.263 43.819 C 89.845 62.764 72.011 86.727 46.681 109.118 C 42.628 112.664 39.437 115.703 39.589 115.806 C 40.097 116.362 52.154 107.495 60.866 100.251 C 72.063 90.829 87.918 74.973 99.064 62.005 C 108.69 50.759 126.572 27.656 140.352 8.659 C 143.594 4.15 146.733 0.3 147.292 0.148 C 148.456 -0.256 149.268 0.2 149.268 1.163 C 149.268 1.567 145.518 12.205 140.96 24.821 C 123.734 72.391 113.907 101.114 113.452 105.472 C 113.196 107.951 113.4 107.647 118.617 98.176 C 134.424 69.501 145.721 53.089 158.639 40.169 C 168.113 30.698 177.688 24.01 177.636 26.897 C 177.636 27.912 177.128 28.316 171.811 32.266 C 153.37 45.894 134.22 73.302 115.831 112.36 C 113.248 117.781 110.41 123.858 109.498 125.785 C 107.168 130.698 104.637 132.169 102.054 130.142 Z" style="fill: rgb(255, 255, 255);"/>
    <path d="M 372.422 129.887 C 370.395 129.027 367.609 126.241 366.798 124.162 C 366.393 123.202 366.09 120.668 366.09 117.933 C 366.09 115.45 365.989 113.372 365.837 113.372 C 365.686 113.372 363.252 115.703 360.417 118.592 C 352.209 126.748 346.384 130.09 340.204 130.09 C 330.477 130.09 323.637 120.312 325.461 108.866 C 325.816 106.736 326.22 104.253 326.372 103.342 C 326.88 100.607 325.612 101.722 319.028 109.777 C 303.777 128.519 294.558 133.585 286.655 127.711 C 283.16 125.125 282.045 120.567 283.261 113.779 C 284.224 108.155 285.795 103.901 290.404 94.022 C 296.077 81.913 295.773 82.014 285.591 95.59 C 270.495 115.654 262.744 123.658 254.385 127.963 C 251.143 129.583 245.418 130.09 243.191 128.927 C 234.224 124.314 234.78 111.649 244.81 91.388 C 249.875 81.154 249.623 81.306 239.389 94.478 C 218.265 121.783 211.021 128.823 202.914 129.887 C 198.256 130.546 193.999 128.064 191.972 123.606 C 190.808 121.072 190.708 120.416 190.908 115.45 C 191.212 108.814 193.187 102.482 198.456 91.64 C 200.383 87.638 201.85 84.244 201.75 84.144 C 201.65 84.041 198.256 88.346 194.202 93.767 C 174.698 119.808 165.53 128.775 157.323 129.887 C 153.117 130.446 148.608 128.216 146.785 124.621 C 145.366 121.731 145.114 118.641 145.974 113.779 C 146.937 108.155 148.508 103.901 153.169 93.919 C 155.244 89.513 156.815 85.815 156.715 85.712 C 156.36 85.359 152.662 89.765 147.341 96.757 C 142.68 102.989 141.568 104.053 140.604 103.445 C 139.337 102.685 140.908 100.151 149.623 88.954 C 164.111 70.412 164.871 69.552 168.113 68.741 C 169.732 68.337 173.786 68.085 178.143 68.033 L 185.488 68.033 L 185.336 69.3 C 185.287 69.957 181.182 77.508 176.268 86.016 C 165.731 104.101 159.754 115.806 158.538 120.567 C 157.727 123.706 157.727 124.062 158.435 124.822 C 159.198 125.533 159.45 125.533 161.425 124.518 C 167.657 121.327 183.816 102.734 205.044 74.366 C 218.469 56.332 220.392 53.545 229.815 37.383 C 245.318 10.889 246.889 8.255 247.852 7.395 C 248.408 6.936 249.724 6.328 250.839 6.025 C 253.777 5.216 264.315 4.76 265.278 5.417 C 266.238 6.128 264.771 8.963 251.346 32.57 C 217.201 92.552 203.373 119.3 204.081 124.062 C 204.284 125.785 206.512 125.937 209.198 124.366 C 211.832 122.795 218.317 116.158 223.33 109.826 C 246.785 80.191 264.871 56.432 267.913 51.263 C 268.873 49.592 274.749 39.613 280.93 29.024 C 287.162 18.437 292.787 9.066 293.443 8.203 C 294.862 6.28 297.445 5.52 304.285 5.113 C 309.857 4.76 311.884 5.113 311.884 6.328 C 311.884 7.24 309.857 10.99 295.014 37.079 C 265.986 88.246 253.473 112.108 250.839 121.227 C 249.523 125.733 250.483 126.544 254.488 124.417 C 260.161 121.327 267.001 113.88 286.807 89.057 C 294.965 78.875 302.057 70.212 302.562 69.704 C 304.54 68.033 313.1 66.97 319.484 67.678 C 322.623 68.033 322.774 68.085 322.623 69.3 C 322.574 69.957 318.469 77.508 313.555 86.016 C 296.737 114.995 292.279 125.733 297.192 125.125 C 300.334 124.773 307.578 117.83 320.951 102.33 C 339.341 80.902 346.384 74.062 353.881 70.109 C 359.098 67.374 363.303 66.158 367.609 66.107 C 373.434 66.006 376.172 67.17 380.681 71.579 L 384.428 75.226 L 385.239 73.81 C 385.746 73.047 386.506 71.679 386.962 70.82 C 388.277 68.437 390.508 67.781 397.092 67.781 C 404.592 67.781 406.618 68.133 406.618 69.401 C 406.618 70.668 405.755 72.339 396.384 88.753 C 381.641 114.639 377.184 124.822 380.225 125.785 C 384.124 127 396.181 114.588 413.303 91.692 C 421.918 80.142 424.905 76.645 429.362 72.694 C 436.91 66.006 445.828 65.298 448.867 71.123 C 451.146 75.429 449.83 85.712 445.677 96.453 L 444.157 100.355 L 445.929 98.632 C 446.944 97.669 450.742 92.907 454.388 88.042 C 468.117 69.805 475.92 64.132 483.316 66.97 C 486.102 68.033 488.433 70.616 489.244 73.454 C 490.156 76.948 489.496 84.852 487.722 91.792 C 486.81 95.134 486.202 98.024 486.254 98.225 C 486.354 98.428 488.585 95.794 491.271 92.451 C 505.251 74.821 513.762 67.526 521.006 66.918 C 524.401 66.666 526.631 67.781 529.162 71.023 C 535.09 78.519 532.1 91.792 520.347 110.081 C 514.218 119.604 512.444 123.606 513.51 125.533 C 515.737 129.735 527.391 119.249 541.626 100.203 C 544.665 96.149 552.669 85.815 559.357 77.152 C 566.093 68.541 573.237 59.27 575.212 56.584 C 577.187 53.898 579.162 51.567 579.621 51.366 C 581.292 50.759 581.9 51.063 581.9 52.53 C 581.9 53.594 581.14 54.964 579.265 57.191 C 576.883 60.03 576.631 60.586 576.683 62.713 C 576.731 65.195 578.554 70.109 583.367 80.798 C 587.117 89.006 588.536 94.274 588.84 100.962 C 588.992 104.053 588.84 107.547 588.585 108.763 L 588.08 110.941 L 589.6 109.522 C 590.411 108.714 592.638 106.231 594.461 104.001 C 598.159 99.595 598.618 99.139 599.378 99.34 C 600.794 99.796 599.882 101.722 595.729 107.192 C 582.508 124.569 572.07 131.206 560.572 129.583 C 554.999 128.775 551.757 127.252 548.059 123.81 C 545.121 121.072 543.802 118.389 543.498 114.539 C 543.042 108.459 545.476 104.761 550.134 104.357 C 553.428 104.101 555.659 105.065 557.075 107.447 C 558.293 109.422 558.393 113.323 557.33 115.35 C 556.518 116.97 553.784 119.452 552.872 119.452 C 551.25 119.504 550.894 120.312 551.705 121.883 C 552.769 123.91 554.24 124.67 556.315 124.314 C 561.635 123.302 570.299 107.343 573.337 93.111 C 575.312 83.636 574.808 67.678 572.477 66.918 C 571.97 66.766 554.036 89.361 543.65 103.241 C 532.659 117.982 525.516 125.329 519.335 128.368 C 515.941 130.039 515.282 130.191 512.292 129.99 C 504.492 129.483 500.49 122.947 501.806 112.816 C 502.869 104.357 506.163 96.705 513.762 84.8 C 521.006 73.454 521.918 70.464 518.068 70.668 C 511.836 70.971 496.792 89.057 476.324 120.82 C 472.374 126.949 471.006 128.623 469.739 129.079 C 468.879 129.431 464.37 129.787 459.709 129.939 L 451.198 130.242 L 451.198 129.079 C 451.198 127.963 454.592 121.175 464.318 102.837 C 473.489 85.511 477.439 75.277 475.819 73.099 C 472.93 69.148 459.353 84.296 438.077 115.147 C 427.591 130.394 428.806 129.079 424.601 129.583 C 420.547 130.142 411.48 130.242 409.809 129.787 C 409.15 129.583 408.642 129.179 408.642 128.875 C 408.642 128.519 412.544 121.427 417.357 113.068 C 430.985 89.258 437.873 75.177 436.758 73.351 C 435.038 70.564 428.35 77.304 413.963 96.149 C 404.388 108.662 399.931 114.031 394.358 119.504 C 385.442 128.368 377.487 132.117 372.422 129.887 Z M 346.637 125.785 C 352.917 122.643 359.909 115.299 367.357 104.001 C 372.37 96.353 375.613 90.728 377.995 85.511 C 379.262 82.773 379.514 81.558 379.514 78.216 L 379.514 74.265 L 377.539 72.542 C 371.662 67.425 365.278 72.743 351.602 94.123 C 341.671 109.625 337.314 119.352 338.429 123.758 C 339.292 127.152 342.383 127.912 346.637 125.785 Z" style="fill: rgb(255, 255, 255);"/>
    <path d="M 189.085 45.49 C 185.691 44.426 183.716 41.284 183.716 37.03 C 183.716 33.533 184.932 30.698 187.311 28.416 C 194.962 21.172 205.144 27.152 202.206 37.131 C 200.483 43.108 194.202 47.109 189.085 45.49 Z" style="fill: rgb(255, 255, 255);"/>
    <path d="M 325.257 44.527 C 321.407 42.755 319.836 38.446 321.207 33.585 C 323.23 26.644 330.526 22.795 335.895 25.885 C 338.53 27.404 339.748 29.786 339.748 33.533 C 339.748 37.283 338.378 40.273 335.643 42.603 C 332.3 45.49 328.803 46.149 325.257 44.527 Z" style="fill: rgb(255, 255, 255);"/>
  </g>
</svg>
